assets/icons/check.svg

<svg xmlns="http://www.w3.org/2000/svg" viewBox="0 0 16 16"><path fill-rule="evenodd" clip-rule="evenodd" d="M2.29 8.29a.996.996 0 0 1 1.41 0l2.3 2.3 7.29-7.3a.996.996 0 0 1 1.41 0c.4.39.4 1.03.01 1.42l-8 8c-.4.39-1.03.39-1.42-.01l-3-2.99c-.39-.39-.39-1.03 0-1.42z"/></svg>

<svg xmlns='http://www.w3.org/2000/svg' viewBox='0 0 16 16'><path fill-rule='evenodd' clip-rule='evenodd' d='M2.29 8.29C2.68 7.9 3.32 7.9 3.7 8.29L6 10.59L13.29 3.29C13.68 2.9 14.31 2.9 14.7 3.29C15.1 3.68 15.1 4.32 14.71 4.71L6.71 12.71C6.31 13.1 5.68 13.1 5.29 12.7L2.29 9.71C1.9 9.32 1.9 8.68 2.29 8.29Z' fill='#000'/></svg>
